icons/1_Primary/Synology.svg

<svg xmlns="http://www.w3.org/2000/svg" width="1024" height="1024" fill="none">
   <g clip-path="url(#a)">
      <path fill="#A0A5AF" d="M512 1024c282.77 0 512-229.23 512-512S794.77 0 512 0 0 229.23 0 512s229.23 512 512 512Z"/>
      <path fill="#fff" d="M582 410.81 552.75 423l1.84 3.85a20.506 20.506 0 0 1 7-1.78c1.522-.026 3 .512 4.15 1.51 1.09.92 1.91 2.67 2.37 5.27.46 2.6.72 9.55.72 20.87v90.08c0 6.22-.43 10.4-1.38 12.54a9.714 9.714 0 0 1-3.89 4.68c-1.75 1-4.84 1.48-9.42 1.48v4h48.76v-4c-5.07 0-8.59-.56-10.54-1.58a9.548 9.548 0 0 1-4.15-4.68c-.86-2-1.32-6.16-1.32-12.45v-132l-4.89.02ZM196.07 422c-10.87 0-20 1.65-27.66 4.84a38.272 38.272 0 0 0-17.58 14.36 35.655 35.655 0 0 0-6.09 20.15c0 11.13 4.31 20.64 12.94 28.45 6.06 5.5 16.69 10.17 31.87 13.89 11.79 3 19.33 5 22.65 6.29a23.011 23.011 0 0 1 10.21 6 13.004 13.004 0 0 1 2.9 8.53c0 5.1-2.3 9.58-6.91 13.5s-11.52 5.79-20.68 5.79c-8.627 0-15.487-2.163-20.58-6.49-5.08-4.31-8.4-11.13-10.14-20.31l-27.53 2.6c1.846 15.807 7.513 27.837 17 36.09 9.486 8.253 23.153 12.403 41 12.45 12.22 0 22.39-1.78 30.62-5.14a41.582 41.582 0 0 0 25.71-38.49 42.474 42.474 0 0 0-5.63-22.52 39.613 39.613 0 0 0-15.54-14.39c-6.59-3.52-16.73-6.91-30.52-10.21-13.79-3.3-22.49-6.35-26-9.42a10.722 10.722 0 0 1-4.198-8.701 10.73 10.73 0 0 1 4.498-8.549c4.61-3.46 11.06-5.14 19.29-5.14 7.9 0 13.89 1.61 17.85 4.77 3.96 3.16 6.55 8.43 7.8 15.51l28.45-.92c-.43-13-5.07-23.38-14-31.25-8.93-7.87-22.18-11.69-39.8-11.69h.07Zm217.77 39.28c-13.5 0-24.76 5.6-33.68 16.92v-15h-24.83v102.26h26.8v-46.13c0-11.46.72-19.2 2.07-23.48a19.197 19.197 0 0 1 7.7-10.08 21.934 21.934 0 0 1 12.68-3.89 16.533 16.533 0 0 1 9.45 2.7 14.565 14.565 0 0 1 5.6 7.54c1.22 3.26 1.78 10.34 1.78 21.27v52.06h26.87v-63.34a83.678 83.678 0 0 0-1.52-18.11 30.459 30.459 0 0 0-5.27-11.29 27.33 27.33 0 0 0-11.23-8.23 42.32 42.32 0 0 0-16.42-3.19v-.01Zm87.25 0a56.001 56.001 0 0 0-27.2 6.59 45.771 45.771 0 0 0-18.8 19.29 55.44 55.44 0 0 0-6.65 26.11c0 11.72 2.24 21.63 6.65 29.76a43.106 43.106 0 0 0 19.36 18.64 59.34 59.34 0 0 0 26.8 6.39c15.15 0 27.69-5.14 37.67-15.24 9.98-10.1 15-23 15-38.42 0-15.42-4.94-28-14.85-38.06-9.91-10.06-22.49-15-38-15l.02-.06Zm240.85 1.65c-11.56 0-21.07 3.56-28.48 10.63a34.489 34.489 0 0 0-6.22 42.93A34 34 0 0 0 721.16 529c-7.34 6.16-12.05 11-14.13 14.49a18.1 18.1 0 0 0-3 8.92 8.999 8.999 0 0 0 2.34 6.06c1.51 1.84 4.18 3.82 7.9 6.16a319.908 319.908 0 0 0-10.83 11.69c-3.72 4.77-6.26 8.33-7.44 11.06a13.5 13.5 0 0 0-1.12 5.17c0 4 2.67 7.64 8.1 11.29 9.58 6.26 21.37 9.35 35.26 9.35 18.106 0 32.773-5.237 44-15.71 7.64-7.11 11.52-14.82 11.52-22.85a20.183 20.183 0 0 0-6-14.82 27.593 27.593 0 0 0-16.13-7.47 279.303 279.303 0 0 0-28.91-1.75c-5.063-.023-10.12-.32-15.15-.89-3.46-.49-5.83-1.32-7-2.47a5.047 5.047 0 0 1-1.84-3.69c.144-1.85.708-3.642 1.65-5.24a28.57 28.57 0 0 1 6.12-7.3 49.99 49.99 0 0 0 15.11 2.3c11.853 0 21.336-3.303 28.45-9.91a31.488 31.488 0 0 0 10.63-23.77c0-8.133-2.054-14.827-6.16-20.08h13c3.19 0 4.94-.07 5.5-.33.236-.054.459-.155.657-.295.197-.141.364-.319.493-.525a9.518 9.518 0 0 0 .59-4 7.008 7.008 0 0 0-.66-3.46 2.739 2.739 0 0 0-1.09-.92 27.277 27.277 0 0 0-5.47-.26h-21a43.003 43.003 0 0 0-24.56-6.91l-.05.09Zm-90.61 0a46.39 46.39 0 0 0-23.51 6.39 47.307 47.307 0 0 0-18 20.08 59.781 59.781 0 0 0-6.75 27.16 55.692 55.692 0 0 0 11.19 33.91 42.472 42.472 0 0 0 35.89 17.88 46.512 46.512 0 0 0 25-6.95c7.57-4.61 13.47-11.52 17.78-20.64a62.998 62.998 0 0 0 6.39-27 52.544 52.544 0 0 0-11.66-33.65 44.251 44.251 0 0 0-36.38-17.19l.05.01Zm-401.1.3 38.65 102.5a39.29 39.29 0 0 1-6.88 14.19c-3 3.69-7.57 5.5-13.8 5.5a54.672 54.672 0 0 1-11.33-1.32l2.21 21.24a71.938 71.938 0 0 0 15.25 1.66 53.361 53.361 0 0 0 13.76-1.71 34.246 34.246 0 0 0 10.21-4.54 28.396 28.396 0 0 0 7.38-7.7 72.467 72.467 0 0 0 6.75-13.63l6.57-17.91 35.72-98.28h-27.81l-23.77 72.57-24.36-72.57h-28.55Zm547.58 2.57v4a27.674 27.674 0 0 1 8.07 3 29.559 29.559 0 0 1 4.48 5.17 61.964 61.964 0 0 1 5.2 8.4l35.82 74.91-7 17.32c-2.6 6.39-5.2 10.73-7.77 12.94-2.57 2.21-4.94 3.42-7.14 3.42a28.903 28.903 0 0 1-5.5-1.65 30.422 30.422 0 0 0-9.88-2.3c-3.46 0-6.26.82-8.23 2.77a9.422 9.422 0 0 0-3 7.24 10.996 10.996 0 0 0 4.15 8.46 15 15 0 0 0 10.6 3.69c5.93 0 12.05-2.37 18.44-7.34 6.39-4.97 11.52-12.18 15.44-21.86l40.37-99.24a52.707 52.707 0 0 1 3.72-8.36 18.097 18.097 0 0 1 4.77-4.81 15.564 15.564 0 0 1 6.19-1.75v-4H874.3v4c2.19-.114 4.385.143 6.49.76a5.66 5.66 0 0 1 2.73 1.88 4.82 4.82 0 0 1 .76 2.86 23.428 23.428 0 0 1-1.84 8.92l-22.22 55-24.27-50.38c-2.44-4.94-3.62-8.82-3.62-11.72a6.916 6.916 0 0 1 2.44-5.27 11.391 11.391 0 0 1 7.38-2.07h2.24v-4l-46.58.01Zm-57.72 2.63c5.76 0 10.4 2.44 14.16 7.14 4.94 6.45 7.38 15.34 7.38 26.83 0 8.727-1.757 15.137-5.27 19.23a16.993 16.993 0 0 1-13.5 6.19 17.384 17.384 0 0 1-14.16-7.11c-4.91-6.26-7.34-15.08-7.34-26.41 0-8.82 1.78-15.18 5.37-19.43a16.992 16.992 0 0 1 13.37-6.49l-.01.05ZM648 470.21c8 0 14.49 3.36 19.69 10.27 7.57 10.14 11.39 23.94 11.39 41.58 0 14.13-2.3 24-6.88 29.8a21.273 21.273 0 0 1-17.38 8.69c-9.42 0-17-5.3-22.75-15.71s-8.66-22.88-8.66-37.37c0-9 1.22-16.23 3.62-22a24.07 24.07 0 0 1 9.38-11.89 21.998 21.998 0 0 1 11.59-3.37Zm-147 13a23.155 23.155 0 0 1 17.88 8.13c4.74 5.33 7.11 13.07 7.11 23.15 0 10.24-2.37 18.11-7.11 23.44a23.618 23.618 0 0 1-27.679 6.025 23.614 23.614 0 0 1-8.041-6.025c-4.84-5.3-7.24-13.1-7.24-23.31 0-10.21 2.4-17.94 7.24-23.28a23.19 23.19 0 0 1 17.84-8.13Zm219.28 82.25c8.73 1.19 21.3 2.14 37.6 2.63 11.19.23 18.64 1.12 22.39 2.73 3.75 1.61 5.6 4.28 5.6 7.94 0 5.167-3.094 10.017-9.28 14.55-6.26 4.54-15.8 6.85-28.78 6.85-13.63 0-24.1-2.3-31.31-6.72-4.21-2.57-6.26-5.53-6.26-9.12a17.584 17.584 0 0 1 2.5-8.56 49.691 49.691 0 0 1 7.51-10.31l.03.01Z"/>
   </g>
   <defs>
      <clipPath id="a">
         <path fill="#fff" d="M0 0h1024v1024H0z"/>
      </clipPath>
   </defs>
</svg>

<svg width="1024" height="1024" viewBox="0 0 1024 1024" fill="none" xmlns="http://www.w3.org/2000/svg">
<g clip-path="url(#clip0_2_3591)">
<path d="M512 1024C794.77 1024 1024 794.77 1024 512C1024 229.23 794.77 0 512 0C229.23 0 0 229.23 0 512C0 794.77 229.23 1024 512 1024Z" fill="#A0A5AF"/>
<path d="M582 410.81L552.75 423L554.59 426.85C556.799 425.847 559.169 425.245 561.59 425.07C563.112 425.044 564.59 425.582 565.74 426.58C566.83 427.5 567.65 429.25 568.11 431.85C568.57 434.45 568.83 441.4 568.83 452.72V542.8C568.83 549.02 568.4 553.2 567.45 555.34C566.688 557.277 565.324 558.917 563.56 560.02C561.81 561.02 558.72 561.5 554.14 561.5V565.5H602.9V561.5C597.83 561.5 594.31 560.94 592.36 559.92C590.49 558.87 589.029 557.222 588.21 555.24C587.35 553.24 586.89 549.08 586.89 542.79V410.79L582 410.81ZM196.07 422C185.2 422 176.07 423.65 168.41 426.84C161.232 429.739 155.103 434.746 150.83 441.2C146.818 447.151 144.696 454.174 144.74 461.35C144.74 472.48 149.05 481.99 157.68 489.8C163.74 495.3 174.37 499.97 189.55 503.69C201.34 506.69 208.88 508.69 212.2 509.98C216.068 511.055 219.588 513.123 222.41 515.98C224.362 518.387 225.391 521.412 225.31 524.51C225.31 529.61 223.01 534.09 218.4 538.01C213.79 541.93 206.88 543.8 197.72 543.8C189.093 543.8 182.233 541.637 177.14 537.31C172.06 533 168.74 526.18 167 517L139.47 519.6C141.316 535.407 146.983 547.437 156.47 555.69C165.956 563.943 179.623 568.093 197.47 568.14C209.69 568.14 219.86 566.36 228.09 563C235.707 559.855 242.218 554.516 246.796 547.663C251.373 540.81 253.811 532.751 253.8 524.51C254.051 516.626 252.101 508.828 248.17 501.99C244.392 495.872 239.02 490.897 232.63 487.6C226.04 484.08 215.9 480.69 202.11 477.39C188.32 474.09 179.62 471.04 176.11 467.97C174.778 466.949 173.705 465.63 172.976 464.119C172.247 462.608 171.882 460.947 171.912 459.269C171.941 457.592 172.363 455.945 173.144 454.46C173.925 452.975 175.044 451.694 176.41 450.72C181.02 447.26 187.47 445.58 195.7 445.58C203.6 445.58 209.59 447.19 213.55 450.35C217.51 453.51 220.1 458.78 221.35 465.86L249.8 464.94C249.37 451.94 244.73 441.56 235.8 433.69C226.87 425.82 213.62 422 196 422H196.07ZM413.84 461.28C400.34 461.28 389.08 466.88 380.16 478.2V463.2H355.33V565.46H382.13V519.33C382.13 507.87 382.85 500.13 384.2 495.85C385.55 491.715 388.265 488.161 391.9 485.77C395.624 483.196 400.053 481.837 404.58 481.88C407.931 481.801 411.226 482.743 414.03 484.58C416.678 486.406 418.647 489.057 419.63 492.12C420.85 495.38 421.41 502.46 421.41 513.39V565.45H448.28V502.11C448.432 496.036 447.923 489.964 446.76 484C445.8 479.914 444.006 476.07 441.49 472.71C438.52 469.043 434.651 466.208 430.26 464.48C425.053 462.335 419.471 461.25 413.84 461.29V461.28ZM501.09 461.28C491.611 461.139 482.253 463.407 473.89 467.87C465.83 472.269 459.28 478.99 455.09 487.16C450.76 495.184 448.476 504.152 448.44 513.27C448.44 524.99 450.68 534.9 455.09 543.03C459.392 551.148 466.175 557.678 474.45 561.67C482.758 565.873 491.939 568.062 501.25 568.06C516.4 568.06 528.94 562.92 538.92 552.82C548.9 542.72 553.92 529.82 553.92 514.4C553.92 498.98 548.98 486.4 539.07 476.34C529.16 466.28 516.58 461.34 501.07 461.34L501.09 461.28ZM741.94 462.93C730.38 462.93 720.87 466.49 713.46 473.56C707.666 478.923 703.888 486.112 702.756 493.925C701.624 501.738 703.207 509.703 707.24 516.49C710.618 521.88 715.441 526.214 721.16 529C713.82 535.16 709.11 540 707.03 543.49C705.261 546.147 704.226 549.224 704.03 552.41C704.028 554.651 704.863 556.812 706.37 558.47C707.88 560.31 710.55 562.29 714.27 564.63C710.563 568.437 706.953 572.333 703.44 576.32C699.72 581.09 697.18 584.65 696 587.38C695.289 589.013 694.909 590.77 694.88 592.55C694.88 596.55 697.55 600.19 702.98 603.84C712.56 610.1 724.35 613.19 738.24 613.19C756.346 613.19 771.013 607.953 782.24 597.48C789.88 590.37 793.76 582.66 793.76 574.63C793.822 571.881 793.322 569.149 792.29 566.6C791.258 564.052 789.717 561.741 787.76 559.81C783.354 555.609 777.683 552.982 771.63 552.34C762.03 551.257 752.38 550.673 742.72 550.59C737.657 550.567 732.6 550.27 727.57 549.7C724.11 549.21 721.74 548.38 720.57 547.23C720.021 546.779 719.574 546.217 719.257 545.581C718.94 544.945 718.76 544.25 718.73 543.54C718.874 541.69 719.438 539.898 720.38 538.3C721.997 535.541 724.066 533.074 726.5 531C731.389 532.537 736.485 533.312 741.61 533.3C753.463 533.3 762.946 529.997 770.06 523.39C773.425 520.416 776.114 516.755 777.948 512.656C779.781 508.556 780.716 504.111 780.69 499.62C780.69 491.487 778.636 484.793 774.53 479.54H787.53C790.72 479.54 792.47 479.47 793.03 479.21C793.266 479.156 793.489 479.055 793.687 478.915C793.884 478.774 794.051 478.596 794.18 478.39C794.661 477.114 794.862 475.75 794.77 474.39C794.848 473.199 794.621 472.008 794.11 470.93C793.834 470.532 793.458 470.215 793.02 470.01C791.21 469.74 789.377 469.653 787.55 469.75H766.55C759.251 465.015 750.687 462.606 741.99 462.84L741.94 462.93ZM651.33 462.93C643.064 462.927 634.947 465.134 627.82 469.32C619.999 474.125 613.745 481.102 609.82 489.4C605.453 497.792 603.139 507.1 603.07 516.56C602.977 528.785 606.909 540.701 614.26 550.47C618.307 556.175 623.701 560.793 629.962 563.912C636.223 567.032 643.158 568.556 650.15 568.35C658.974 568.452 667.645 566.041 675.15 561.4C682.72 556.79 688.62 549.88 692.93 540.76C697.04 532.347 699.223 523.123 699.32 513.76C699.469 501.528 695.345 489.627 687.66 480.11C683.386 474.573 677.86 470.129 671.537 467.141C665.213 464.153 658.271 462.706 651.28 462.92L651.33 462.93ZM250.23 463.23L288.88 565.73C287.569 570.876 285.229 575.704 282 579.92C279 583.61 274.43 585.42 268.2 585.42C264.387 585.376 260.59 584.934 256.87 584.1L259.08 605.34C264.089 606.435 269.202 606.992 274.33 607C278.971 607.031 283.597 606.456 288.09 605.29C291.719 604.346 295.168 602.812 298.3 600.75C301.224 598.673 303.728 596.06 305.68 593.05C308.402 588.756 310.664 584.188 312.43 579.42L319 561.51L354.72 463.23H326.91L303.14 535.8L278.78 463.23H250.23ZM797.81 465.8V469.8C800.64 470.373 803.363 471.385 805.88 472.8C807.568 474.344 809.072 476.079 810.36 477.97C812.314 480.627 814.053 483.436 815.56 486.37L851.38 561.28L844.38 578.6C841.78 584.99 839.18 589.33 836.61 591.54C834.04 593.75 831.67 594.96 829.47 594.96C827.586 594.594 825.744 594.041 823.97 593.31C820.828 591.996 817.489 591.218 814.09 591.01C810.63 591.01 807.83 591.83 805.86 593.78C804.869 594.701 804.089 595.824 803.571 597.073C803.053 598.323 802.811 599.669 802.86 601.02C802.882 602.65 803.265 604.254 803.983 605.717C804.701 607.18 805.735 608.465 807.01 609.48C809.932 612.035 813.732 613.358 817.61 613.17C823.54 613.17 829.66 610.8 836.05 605.83C842.44 600.86 847.57 593.65 851.49 583.97L891.86 484.73C892.855 481.841 894.1 479.044 895.58 476.37C896.853 474.481 898.471 472.849 900.35 471.56C902.269 470.552 904.377 469.956 906.54 469.81V465.81H874.3V469.81C876.49 469.696 878.685 469.953 880.79 470.57C881.867 470.91 882.818 471.565 883.52 472.45C884.067 473.3 884.333 474.301 884.28 475.31C884.256 478.375 883.631 481.406 882.44 484.23L860.22 539.23L835.95 488.85C833.51 483.91 832.33 480.03 832.33 477.13C832.33 476.127 832.548 475.136 832.969 474.226C833.391 473.316 834.005 472.509 834.77 471.86C836.917 470.338 839.525 469.607 842.15 469.79H844.39V465.79L797.81 465.8ZM740.09 468.43C745.85 468.43 750.49 470.87 754.25 475.57C759.19 482.02 761.63 490.91 761.63 502.4C761.63 511.127 759.873 517.537 756.36 521.63C754.725 523.616 752.66 525.205 750.321 526.277C747.983 527.349 745.432 527.877 742.86 527.82C740.105 527.842 737.384 527.209 734.922 525.973C732.46 524.736 730.328 522.933 728.7 520.71C723.79 514.45 721.36 505.63 721.36 494.3C721.36 485.48 723.14 479.12 726.73 474.87C728.321 472.846 730.352 471.211 732.668 470.087C734.984 468.962 737.525 468.379 740.1 468.38L740.09 468.43ZM648 470.21C656 470.21 662.49 473.57 667.69 480.48C675.26 490.62 679.08 504.42 679.08 522.06C679.08 536.19 676.78 546.06 672.2 551.86C670.201 554.585 667.582 556.794 664.56 558.306C661.538 559.817 658.199 560.586 654.82 560.55C645.4 560.55 637.82 555.25 632.07 544.84C626.32 534.43 623.41 521.96 623.41 507.47C623.41 498.47 624.63 491.24 627.03 485.47C628.796 480.601 632.085 476.431 636.41 473.58C639.883 471.398 643.898 470.231 648 470.21ZM501 483.21C504.394 483.172 507.754 483.881 510.844 485.286C513.934 486.691 516.677 488.757 518.88 491.34C523.62 496.67 525.99 504.41 525.99 514.49C525.99 524.73 523.62 532.6 518.88 537.93C516.662 540.492 513.92 542.547 510.838 543.955C507.757 545.364 504.408 546.093 501.02 546.093C497.631 546.093 494.283 545.364 491.201 543.955C488.12 542.547 485.377 540.492 483.16 537.93C478.32 532.63 475.92 524.83 475.92 514.62C475.92 504.41 478.32 496.68 483.16 491.34C485.359 488.764 488.096 486.701 491.178 485.296C494.26 483.891 497.613 483.179 501 483.21ZM720.28 565.46C729.01 566.65 741.58 567.6 757.88 568.09C769.07 568.32 776.52 569.21 780.27 570.82C784.02 572.43 785.87 575.1 785.87 578.76C785.87 583.927 782.776 588.777 776.59 593.31C770.33 597.85 760.79 600.16 747.81 600.16C734.18 600.16 723.71 597.86 716.5 593.44C712.29 590.87 710.24 587.91 710.24 584.32C710.324 581.299 711.185 578.351 712.74 575.76C714.79 572.015 717.314 568.55 720.25 565.45L720.28 565.46Z" fill="white"/>
</g>
<defs>
<clipPath id="clip0_2_3591">
<rect width="1024" height="1024" fill="white"/>
</clipPath>
</defs>
</svg>
